;FLAVOR:Marlin
;TIME:6865
;Filament used: 3.99569m
;Layer height: 0.2
;MINX:71.8
;MINY:60
;MINZ:0.2
;MAXX:154.454
;MAXY:160
;MAXZ:10.6
;Generated with Cura_SteamEngine 5.3.0
M140 S60
M105
M190 S60
M104 S200
M105
M109 S200
M82 ;absolute extrusion mode
; Ender 3 Custom Start G-code
G92 E0 ; Reset Extruder
G28 ; Home all axes
G29 ; Level bed
G1 Z2.0 F3000 ; Move Z Axis up little to prevent scratching of Heat Bed
G1 X0.1 Y20 Z0.3 F5000.0 ; Move to start position
G1 X0.1 Y200.0 Z0.3 F1500.0 E15 ; Draw the first line
G1 X0.4 Y200.0 Z0.3 F5000.0 ; Move to side a little
G1 X0.4 Y20 Z0.3 F1500.0 E30 ; Draw the second line
G92 E0 ; Reset Extruder
G1 Z2.0 F3000 ; Move Z Axis up little to prevent scratching of Heat Bed
G1 X5 Y20 Z0.3 F5000.0 ; Move over to prevent blob squish
G92 E0
G92 E0
G1 F1500 E-6.5
;LAYER_COUNT:53
;LAYER:0
M107
G0 F6000 X75.17 Y65.527 Z0.2
;TYPE:SKIRT
G1 F1500 E0
G1 F1200 X76.026 Y64.552 E0.04315
G1 X76.33 Y64.247 E0.05748
G1 X76.995 Y63.637 E0.08749
G1 X77.712 Y63.087 E0.11755
G1 X78.112 Y62.821 E0.13352
G1 X78.494 Y62.58 E0.14855
G1 X79.278 Y62.133 E0.17856
G1 X80.099 Y61.756 E0.20861
G1 X80.58 Y61.575 E0.2257
G1 X80.999 Y61.429 E0.24046
G1 X81.864 Y61.17 E0.27049
G1 X82.749 Y60.988 E0.30054
G1 X83.231 Y60.923 E0.31672
G1 X83.7 Y60.871 E0.33242
G1 X84.69 Y60.81 E0.36541
G1 X85.511 Y60.8 E0.39271
G1 X126.756 Y60.802 E1.76453
G1 X127.452 Y60.812 E1.78768
G1 X128.424 Y60.873 E1.82007
G1 X128.859 Y60.921 E1.83463
G1 X129.751 Y61.059 E1.86465
G1 X130.628 Y61.276 E1.8947
G1 X131.144 Y61.444 E1.91275
G1 X131.579 Y61.598 E1.92809
G1 X132.416 Y61.937 E1.95813
G1 X133.22 Y62.348 E1.98816
G1 X133.647 Y62.605 E2.00474
G1 X134.023 Y62.844 E2.01956
G1 X134.763 Y63.362 E2.0496
G1 X135.775 Y64.252 E2.09442
G1 X136.075 Y64.553 E2.10856
G1 X136.684 Y65.22 E2.1386
G1 X137.231 Y65.938 E2.16862
G1 X137.721 Y66.698 E2.1987
G1 X138.346 Y67.847 E2.2422
G1 X138.692 Y68.593 E2.26955
G1 X139.812 Y70.925 E2.3556
G1 X140.987 Y73.205 E2.44091
G1 X142.218 Y75.436 E2.52566
G1 X143.489 Y77.594 E2.60896
G1 X144.849 Y79.759 E2.69399
G1 X146.26 Y81.872 E2.7785
G1 X147.723 Y83.932 E2.86254
G1 X149.268 Y85.982 E2.94792
G1 X150.756 Y87.855 E3.02748
G1 X151.233 Y88.508 E3.05437
G1 X151.494 Y88.896 E3.06993
G1 X151.965 Y89.667 E3.09998
G1 X152.234 Y90.19 E3.11954
G1 X152.419 Y90.577 E3.13381
G1 X152.772 Y91.408 E3.16384
G1 X153.043 Y92.217 E3.19221
G1 X153.349 Y93.404 E3.23298
G1 X153.428 Y93.811 E3.24677
G1 X153.591 Y94.984 E3.28616
G1 X153.63 Y95.764 E3.31214
G1 X153.654 Y97.109 E3.35688
G1 X153.652 Y135.633 E4.63819
G1 X153.635 Y136.459 E4.66567
G1 X153.606 Y137.076 E4.68621
G1 X153.523 Y137.975 E4.71624
G1 X153.422 Y138.584 E4.73677
G1 X153.337 Y139.012 E4.75129
G1 X152.989 Y140.308 E4.79592
G1 X152.853 Y140.708 E4.80997
G1 X152.339 Y141.948 E4.85462
G1 X152.153 Y142.324 E4.86857
G1 X151.482 Y143.481 E4.91306
G1 X151.246 Y143.833 E4.92715
G1 X150.431 Y144.891 E4.97157
G1 X150.145 Y145.216 E4.98597
G1 X149.188 Y146.169 E5.03089
G1 X148.831 Y146.48 E5.04664
G1 X148.124 Y147.042 E5.07668
G1 X147.544 Y147.434 E5.09996
G1 X144.727 Y149.198 E5.21051
G1 X142.601 Y150.614 E5.29547
G1 X140.533 Y152.08 E5.37978
G1 X138.5 Y153.606 E5.46433
G1 X136.523 Y155.181 E5.5484
G1 X135.625 Y155.938 E5.58746
G1 X134.999 Y156.45 E5.61436
G1 X133.976 Y157.187 E5.65629
G1 X133.598 Y157.425 E5.67115
G1 X132.813 Y157.871 E5.70118
G1 X131.992 Y158.247 E5.73121
G1 X131.526 Y158.423 E5.74778
G1 X131.108 Y158.569 E5.76251
G1 X130.243 Y158.828 E5.79254
G1 X129.359 Y159.011 E5.82257
G1 X128.869 Y159.077 E5.83901
G1 X128.4 Y159.129 E5.8547
G1 X127.409 Y159.19 E5.88773
G1 X126.588 Y159.2 E5.91504
G1 X85.344 Y159.198 E7.28682
G1 X84.648 Y159.188 E7.30997
G1 X83.676 Y159.127 E7.34236
G1 X83.241 Y159.079 E7.35692
G1 X82.349 Y158.941 E7.38694
G1 X81.472 Y158.724 E7.41699
G1 X80.997 Y158.571 E7.43359
G1 X80.579 Y158.425 E7.44831
G1 X79.74 Y158.089 E7.47837
G1 X78.934 Y157.681 E7.50842
G1 X78.536 Y157.445 E7.52381
G1 X78.152 Y157.205 E7.53887
G1 X77.408 Y156.693 E7.56891
G1 X76.712 Y156.117 E7.59896
G1 X76.357 Y155.779 E7.61526
G1 X76.046 Y155.469 E7.62986
G1 X75.435 Y154.804 E7.6599
G1 X74.886 Y154.087 E7.68994
G1 X74.611 Y153.673 E7.70647
G1 X74.369 Y153.288 E7.72159
G1 X73.923 Y152.503 E7.75162
G1 X73.548 Y151.681 E7.78167
G1 X73.371 Y151.21 E7.79841
G1 X73.226 Y150.793 E7.81309
G1 X72.967 Y149.928 E7.84312
G1 X72.786 Y149.043 E7.87317
G1 X72.674 Y148.137 E7.90353
G1 X72.611 Y147.142 E7.93669
G1 X72.6 Y146.289 E7.96506
G1 X72.602 Y73.548 E10.38444
G1 X72.612 Y72.841 E10.40796
G1 X72.674 Y71.853 E10.44088
G1 X72.721 Y71.432 E10.45497
G1 X72.861 Y70.54 E10.485
G1 X73.079 Y69.664 E10.51503
G1 X73.235 Y69.181 E10.53191
G1 X73.389 Y68.743 E10.54735
G1 X73.726 Y67.905 E10.57739
G1 X74.136 Y67.1 E10.60744
G1 X74.413 Y66.639 E10.62533
G1 X74.651 Y66.266 E10.64004
G1 X75.17 Y65.527 E10.67008
G0 F6000 X74.869 Y65.263
G1 F1200 X75.725 Y64.288 E10.71323
G1 X76.06 Y63.952 E10.72901
G1 X76.725 Y63.342 E10.75903
G1 X77.491 Y62.754 E10.79114
G1 X77.899 Y62.483 E10.80744
G1 X78.296 Y62.233 E10.82304
G1 X79.111 Y61.769 E10.85423
G1 X79.932 Y61.392 E10.88428
G1 X80.448 Y61.197 E10.90263
G1 X80.884 Y61.046 E10.91797
G1 X81.783 Y60.778 E10.94917
G1 X82.668 Y60.596 E10.97923
G1 X83.187 Y60.525 E10.99665
G1 X83.656 Y60.473 E11.01234
G1 X84.685 Y60.41 E11.04663
G1 X85.511 Y60.4 E11.07411
G1 X126.762 Y60.402 E12.44612
G1 X127.477 Y60.413 E12.4699
G1 X128.468 Y60.475 E12.50293
G1 X128.903 Y60.523 E12.51749
G1 X129.847 Y60.671 E12.54927
G1 X130.752 Y60.896 E12.58028
G1 X131.277 Y61.067 E12.59865
G1 X131.729 Y61.227 E12.6146
G1 X132.566 Y61.566 E12.64463
G1 X133.426 Y62.005 E12.67675
G1 X133.862 Y62.267 E12.69366
G1 X134.252 Y62.516 E12.70905
G1 X134.992 Y63.034 E12.7391
G1 X136.058 Y63.97 E12.78628
G1 X136.37 Y64.283 E12.80098
G1 X136.979 Y64.95 E12.83102
G1 X137.567 Y65.721 E12.86327
G1 X138.057 Y66.481 E12.89335
G1 X138.709 Y67.679 E12.93871
G1 X139.053 Y68.42 E12.96588
G1 X140.168 Y70.742 E13.05156
G1 X141.343 Y73.022 E13.13687
G1 X142.563 Y75.233 E13.22086
G1 X143.828 Y77.381 E13.30377
G1 X145.182 Y79.537 E13.38845
G1 X146.586 Y81.64 E13.47255
G1 X148.049 Y83.7 E13.55658
G1 X149.581 Y85.733 E13.64125
G1 X151.079 Y87.619 E13.72136
G1 X151.565 Y88.285 E13.74878
G1 X151.835 Y88.687 E13.76489
G1 X152.321 Y89.484 E13.79594
G1 X152.595 Y90.017 E13.81587
G1 X152.787 Y90.421 E13.83075
G1 X153.151 Y91.281 E13.86181
G1 X153.43 Y92.117 E13.89112
G1 X153.742 Y93.328 E13.93271
G1 X153.821 Y93.735 E13.9465
G1 X153.991 Y94.964 E13.98777
G1 X154.03 Y95.757 E14.01417
G1 X154.054 Y97.109 E14.05915
G1 X154.052 Y135.641 E15.34073
G1 X154.035 Y136.478 E15.36857
G1 X154.006 Y137.095 E15.38912
G1 X153.918 Y138.04 E15.42068
G1 X153.814 Y138.662 E15.44166
G1 X153.723 Y139.116 E15.45706
G1 X153.368 Y140.437 E15.50256
G1 X153.223 Y140.861 E15.51746
G1 X152.698 Y142.125 E15.56298
G1 X152.499 Y142.525 E15.57784
G1 X151.828 Y143.682 E15.62233
G1 X151.563 Y144.077 E15.63815
G1 X150.748 Y145.135 E15.68257
G1 X150.427 Y145.499 E15.69871
G1 X149.451 Y146.471 E15.74452
G1 X149.08 Y146.793 E15.76086
G1 X148.373 Y147.355 E15.7909
G1 X147.756 Y147.773 E15.81569
G1 X144.949 Y149.531 E15.92585
G1 X142.823 Y150.947 E16.01081
G1 X140.773 Y152.4 E16.09438
G1 X138.74 Y153.926 E16.17893
G1 X136.781 Y155.487 E16.26224
G1 X135.878 Y156.248 E16.30152
G1 X135.233 Y156.775 E16.32922
G1 X134.21 Y157.512 E16.37116
G1 X133.796 Y157.773 E16.38743
G1 X132.98 Y158.235 E16.41862
G1 X132.159 Y158.611 E16.44866
G1 X131.658 Y158.801 E16.46648
G1 X131.223 Y158.952 E16.48179
G1 X130.324 Y159.22 E16.51299
G1 X129.44 Y159.403 E16.54302
G1 X128.913 Y159.475 E16.56071
G1 X128.444 Y159.527 E16.57641
G1 X127.414 Y159.59 E16.61073
G1 X126.588 Y159.6 E16.6382
G1 X85.338 Y159.598 E18.01018
G1 X84.623 Y159.587 E18.03397
G1 X83.632 Y159.525 E18.06699
G1 X83.197 Y159.477 E18.08155
G1 X82.253 Y159.329 E18.11333
G1 X81.349 Y159.105 E18.14431
G1 X80.865 Y158.949 E18.16122
G1 X80.43 Y158.796 E18.17656
G1 X79.559 Y158.446 E18.20778
G1 X78.753 Y158.038 E18.23782
G1 X78.332 Y157.789 E18.25409
G1 X77.925 Y157.535 E18.27005
G1 X77.181 Y157.023 E18.30009
G1 X76.436 Y156.407 E18.33224
G1 X75.751 Y155.74 E18.36404
G1 X75.14 Y155.075 E18.39408
G1 X74.568 Y154.33 E18.42532
G1 X74.272 Y153.886 E18.44306
G1 X74.021 Y153.486 E18.45877
G1 X73.575 Y152.701 E18.4888
G1 X73.184 Y151.847 E18.52004
G1 X72.993 Y151.341 E18.53803
G1 X72.843 Y150.908 E18.55327
G1 X72.575 Y150.008 E18.5845
G1 X72.389 Y149.092 E18.61559
G1 X72.275 Y148.162 E18.64675
G1 X72.211 Y147.147 E18.68058
G1 X72.2 Y146.289 E18.70912
G1 X72.202 Y73.542 E21.12869
G1 X72.213 Y72.816 E21.15284
G1 X72.276 Y71.809 E21.1864
G1 X72.326 Y71.37 E21.2011
G1 X72.473 Y70.443 E21.23231
G1 X72.698 Y69.541 E21.26323
G1 X72.858 Y69.048 E21.28047
G1 X73.018 Y68.594 E21.29648
G1 X73.37 Y67.723 E21.32773
G1 X73.793 Y66.894 E21.35868
G1 X74.076 Y66.424 E21.37693
G1 X74.324 Y66.036 E21.39225
G1 X74.869 Y65.263 E21.42371
G0 F6000 X74.568 Y64.999
G1 F1200 X75.424 Y64.024 E21.46686
G1 X75.79 Y63.657 E21.4841
G1 X76.481 Y63.025 E21.51524
G1 X77.247 Y62.437 E21.54736
G1 X77.686 Y62.145 E21.5649
G1 X78.098 Y61.885 E21.5811
G1 X78.944 Y61.405 E21.61345
G1 X79.765 Y61.028 E21.6435
G1 X80.317 Y60.819 E21.66313
G1 X80.77 Y60.663 E21.67907
G1 X81.702 Y60.386 E21.71141
G1 X82.587 Y60.204 E21.74146
G1 X83.143 Y60.127 E21.76013
G1 X83.612 Y60.075 E21.77582
G1 X84.68 Y60.01 E21.81141
G1 X85.511 Y60 E21.83905
G1 X126.768 Y60.002 E23.21126
G1 X127.502 Y60.014 E23.23568
G1 X128.512 Y60.077 E23.26934
G1 X128.965 Y60.128 E23.2845
G1 X129.944 Y60.283 E23.31747
G1 X130.849 Y60.508 E23.34848
G1 X131.41 Y60.69 E23.3681
G1 X131.879 Y60.856 E23.38465
G1 X132.716 Y61.195 E23.41468
G1 X133.632 Y61.662 E23.44888
G1 X134.077 Y61.93 E23.46616
G1 X134.481 Y62.188 E23.4821
G1 X135.256 Y62.733 E23.51361
G1 X136.322 Y63.669 E23.5608
G1 X136.665 Y64.013 E23.57695
G1 X137.297 Y64.707 E23.60817
G1 X137.903 Y65.504 E23.64147
G1 X138.393 Y66.264 E23.67155
G1 X139.072 Y67.511 E23.71878
G1 X139.414 Y68.247 E23.74577
G1 X140.524 Y70.559 E23.83107
G1 X141.699 Y72.839 E23.91638
G1 X142.908 Y75.03 E23.99961
G1 X144.167 Y77.168 E24.08213
G1 X145.515 Y79.315 E24.16645
G1 X146.912 Y81.408 E24.25015
G1 X148.375 Y83.468 E24.33418
G1 X149.894 Y85.484 E24.41814
G1 X151.402 Y87.383 E24.49879
G1 X151.897 Y88.062 E24.52674
G1 X152.177 Y88.479 E24.54345
G1 X152.663 Y89.276 E24.5745
G1 X152.956 Y89.845 E24.59578
G1 X153.155 Y90.265 E24.61124
G1 X153.53 Y91.154 E24.64333
G1 X153.817 Y92.017 E24.67358
G1 X154.135 Y93.252 E24.716
G1 X154.214 Y93.659 E24.72979
G1 X154.391 Y94.944 E24.77293
G1 X154.43 Y95.75 E24.79977
G1 X154.454 Y97.109 E24.84498
G1 X154.452 Y135.649 E26.12682
G1 X154.435 Y136.497 E26.15503
G1 X154.406 Y137.114 E26.17558
G1 X154.313 Y138.106 E26.20871
G1 X154.206 Y138.741 E26.23013
G1 X154.109 Y139.22 E26.24639
G1 X153.754 Y140.541 E26.29188
G1 X153.592 Y141.014 E26.30851
G1 X153.056 Y142.303 E26.35494
G1 X152.845 Y142.726 E26.37067
G1 X152.174 Y143.883 E26.41515
G1 X151.88 Y144.321 E26.4327
G1 X151.048 Y145.4 E26.47801
G1 X150.727 Y145.764 E26.49416
G1 X149.713 Y146.773 E26.54173
G1 X149.329 Y147.106 E26.55864
G1 X148.622 Y147.668 E26.58868
G1 X147.968 Y148.112 E26.61497
G1 X145.171 Y149.864 E26.72474
G1 X143.045 Y151.28 E26.8097
G1 X141.013 Y152.72 E26.89254
G1 X138.98 Y154.246 E26.97708
G1 X137.039 Y155.793 E27.05964
G1 X136.131 Y156.558 E27.09913
G1 X135.467 Y157.1 E27.12763
G1 X134.444 Y157.837 E27.16957
G1 X133.993 Y158.121 E27.1873
G1 X133.147 Y158.599 E27.21962
G1 X132.326 Y158.975 E27.24965
G1 X131.789 Y159.179 E27.26876
G1 X131.337 Y159.335 E27.28466
G1 X130.405 Y159.612 E27.317
G1 X129.521 Y159.795 E27.34702
G1 X128.957 Y159.873 E27.36596
G1 X128.488 Y159.925 E27.38166
G1 X127.419 Y159.99 E27.41728
G1 X126.588 Y160 E27.44492
G1 X85.332 Y159.998 E28.8171
G1 X84.598 Y159.986 E28.84151
G1 X83.588 Y159.923 E28.87517
G1 X83.135 Y159.872 E28.89033
G1 X82.191 Y159.724 E28.92211
G1 X81.226 Y159.486 E28.95517
G1 X80.732 Y159.326 E28.97244
G1 X80.281 Y159.167 E28.98835
G1 X79.378 Y158.803 E29.02073
G1 X78.572 Y158.395 E29.05078
G1 X78.12 Y158.128 E29.06824
G1 X77.698 Y157.865 E29.08478
G1 X76.954 Y157.353 E29.11482
G1 X76.157 Y156.694 E29.14921
G1 X75.456 Y156.011 E29.18176
G1 X74.845 Y155.346 E29.2118
G1 X74.235 Y154.552 E29.2451
G1 X73.933 Y154.099 E29.26321
G1 X73.673 Y153.684 E29.2795
G1 X73.211 Y152.868 E29.31069
G1 X72.82 Y152.014 E29.34193
G1 X72.615 Y151.472 E29.3612
G1 X72.46 Y151.022 E29.37703
G1 X72.183 Y150.088 E29.40943
G1 X71.992 Y149.141 E29.44156
G1 X71.876 Y148.187 E29.47353
G1 X71.811 Y147.152 E29.50802
G1 X71.8 Y146.289 E29.53673
G1 X71.802 Y73.536 E31.9565
G1 X71.814 Y72.791 E31.98128
G1 X71.879 Y71.764 E32.01551
G1 X71.931 Y71.307 E32.03081
G1 X72.078 Y70.38 E32.06202
G1 X72.31 Y69.444 E32.0941
G1 X72.481 Y68.915 E32.11259
G1 X72.647 Y68.444 E32.1292
G1 X72.999 Y67.573 E32.16045
G1 X73.45 Y66.688 E32.19348
G1 X73.739 Y66.209 E32.21209
G1 X73.997 Y65.806 E32.228
G1 X74.568 Y64.999 E32.26088
G1 F1500 E25.76088
;MESH:ESP-ProgHolder.stl
G0 F6000 X82.144 Y72.879
G0 X86.573 Y77.038
;TYPE:WALL-INNER
G1 F1500 E32.26088
G1 F1200 X86.05 Y77.105 E32.27842
G1 X85.508 Y77.036 E32.29659
G1 X84.995 Y76.821 E32.31509
G1 F1165 X84.559 Y76.491 E32.33383
G1 F1095.9 X84.24 Y76.07 E32.35306
G1 F1006.3 X83.954 Y75.469 E32.37946
G1 F981.6 X83.913 Y75 E32.39861
G1 X83.954 Y74.531 E32.41775
G1 F1006.3 X84.241 Y73.928 E32.44424
G1 F1129.4 X84.571 Y73.501 E32.46331
G1 F1200 X85.005 Y73.175 E32.48136
G1 X85.506 Y72.965 E32.49943
G1 X86.05 Y72.895 E32.51767
G1 X86.592 Y72.964 E32.53584
G1 X87.105 Y73.179 E32.55434
G1 X87.541 Y73.509 E32.57253
G1 X87.871 Y73.945 E32.59072
G1 X88.086 Y74.458 E32.60922
G1 X88.154 Y74.995 E32.62722
G1 X88.087 Y75.531 E32.64519
G1 X87.872 Y76.054 E32.66399
G1 X87.541 Y76.491 E32.68223
G1 X87.107 Y76.82 E32.70034
G1 X86.573 Y77.038 E32.71953
G1 F1500 E26.21953
G0 F6000 X86.588 Y77.137
G0 X87.684 Y76.633
G0 X94.27 Y76.982
G0 X117.549 Y81.335
G1 F1500 E32.71953
G1 F1200 X117.409 Y81.482 E32.72628
G1 X117.26 Y81.563 E32.73192
G1 X117.05 Y81.6 E32.73901
G1 X94.997 Y81.598 E33.4725
G1 X94.691 Y81.482 E33.48338
G1 X94.551 Y81.335 E33.49013
G1 X94.451 Y81.044 E33.50037
G1 X94.45 Y76.985 E33.63537
G1 X94.512 Y76.422 E33.65421
G1 X94.704 Y75.865 E33.6738
G1 X95.015 Y75.372 E33.69319
G1 X95.422 Y74.966 E33.71231
G1 X95.917 Y74.656 E33.73174
G1 X96.461 Y74.463 E33.75094
G1 X96.98 Y74.403 E33.76831
G1 X115.117 Y74.403 E34.37155
G1 X115.629 Y74.461 E34.38869
G1 X116.185 Y74.655 E34.40828
G1 X116.675 Y74.962 E34.42751
G1 X117.084 Y75.372 E34.44677
G1 X117.394 Y75.867 E34.4662
G1 X117.589 Y76.418 E34.48564
G1 X117.65 Y76.983 E34.50454
G1 X117.651 Y81.06 E34.64014
G1 X117.549 Y81.335 E34.64989
G1 F1500 E28.14989
G0 F6000 X117.75 Y80.98
G0 X117.85 Y77.138
G0 X124.416 Y76.633
G0 X125.527 Y77.038
G1 F1500 E34.64989
G1 F1200 X124.989 Y76.818 E34.66923
G1 X124.545 Y76.472 E34.68795
G1 X124.229 Y76.056 E34.70532
G1 X124.016 Y75.546 E34.72371
G1 X123.948 Y75.019 E34.74138
G1 X124.013 Y74.461 E34.76006
G1 X124.229 Y73.945 E34.77867
G1 X124.559 Y73.509 E34.79686
G1 X124.995 Y73.179 E34.81504
G1 X125.507 Y72.965 E34.8335
G1 X126.05 Y72.895 E34.85171
G1 X126.591 Y72.964 E34.86985
G1 X127.097 Y73.174 E34.88807
G1 X127.53 Y73.501 E34.90612
G1 F1129.4 X127.859 Y73.928 E34.92517
G1 F1006.3 X128.146 Y74.531 E34.95165
G1 F983.6 X128.188 Y75 E34.97076
G1 F981.6 X128.145 Y75.499 E34.99113
G1 F1004.2 X127.853 Y76.079 E35.01693
G1 F1093.4 X127.541 Y76.491 E35.0358
G1 F1162.2 X127.105 Y76.821 E35.05458
G1 F1200 X126.592 Y77.036 E35.07308
G1 X126.05 Y77.105 E35.09125
G1 X125.527 Y77.038 E35.10879
G1 F1500 E28.60879
G0 F6000 X125.512 Y77.137
G0 X127.654 Y76.608
G0 X128.406 Y75.489
G0 X128.538 Y76.142
G0 X128.573 Y124.627
G0 X128.551 Y125.203
G0 X127.528 Y122.96
G0 X125.992 Y122.823
G0 X125.249 Y122.959
G0 X124.757 Y123.228
G0 X124.358 Y123.607
G0 X124.065 Y124.072
G0 X123.896 Y124.593
G0 X123.862 Y125.142
G0 X123.966 Y125.682
G0 X124.195 Y126.17
G0 X124.545 Y126.595
G0 X124.588 Y127.072
G0 X126.041 Y127.455
G0 X126.052 Y127.356
G1 F1500 E35.10879
G1 F1200 X125.466 Y127.277 E35.12845
