;FLAVOR:Marlin
;TIME:2080
;Filament used: 1.10919m
;Layer height: 0.2
;MINX:66.5
;MINY:84.001
;MINZ:0.2
;MAXX:153.5
;MAXY:136
;MAXZ:5
;Generated with Cura_SteamEngine 5.3.0
M140 S60
M105
M190 S60
M104 S200
M105
M109 S200
M82 ;absolute extrusion mode
; Ender 3 Custom Start G-code
G92 E0 ; Reset Extruder
G28 ; Home all axes
G29 ; Level bed
G1 Z2.0 F3000 ; Move Z Axis up little to prevent scratching of Heat Bed
G1 X0.1 Y20 Z0.3 F5000.0 ; Move to start position
G1 X0.1 Y200.0 Z0.3 F1500.0 E15 ; Draw the first line
G1 X0.4 Y200.0 Z0.3 F5000.0 ; Move to side a little
G1 X0.4 Y20 Z0.3 F1500.0 E30 ; Draw the second line
G92 E0 ; Reset Extruder
G1 Z2.0 F3000 ; Move Z Axis up little to prevent scratching of Heat Bed
G1 X5 Y20 Z0.3 F5000.0 ; Move over to prevent blob squish
G92 E0
G92 E0
G1 F1500 E-6.5
;LAYER_COUNT:25
;LAYER:0
M107
G0 F6000 X72.461 Y87.805 Z0.2
;TYPE:SKIRT
G1 F1500 E0
G1 F1200 X73.18 Y87.259 E0.03003
G1 X73.787 Y86.869 E0.05402
G1 X74.219 Y86.613 E0.07073
G1 X75.016 Y86.187 E0.10078
G1 X75.527 Y85.96 E0.11938
G1 X76.026 Y85.754 E0.13734
G1 X76.875 Y85.446 E0.16738
G1 X77.522 Y85.267 E0.1897
G1 X77.973 Y85.158 E0.20514
G1 X78.859 Y84.985 E0.23516
G1 X79.371 Y84.922 E0.25232
G1 X80.022 Y84.858 E0.27407
G1 X80.852 Y84.81 E0.30173
G1 X81.399 Y84.801 E0.31992
G1 X138.492 Y84.802 E2.21884
G1 X139.345 Y84.818 E2.24722
G1 X140.089 Y84.859 E2.272
G1 X140.48 Y84.895 E2.28506
G1 X141.375 Y85.017 E2.31511
G1 X141.934 Y85.136 E2.33411
G1 X142.511 Y85.275 E2.35385
G1 X143.379 Y85.525 E2.3839
G1 X144.138 Y85.815 E2.41092
G1 X144.64 Y86.03 E2.42909
G1 X145.453 Y86.422 E2.45911
G1 X146.073 Y86.783 E2.48297
G1 X146.543 Y87.08 E2.50146
G1 X147.284 Y87.596 E2.53149
G1 X147.814 Y88.029 E2.55425
G1 X148.184 Y88.353 E2.57061
G1 X148.836 Y88.978 E2.60065
G1 X149.207 Y89.388 E2.61904
G1 X149.598 Y89.844 E2.63902
G1 X150.155 Y90.554 E2.66904
G1 X150.637 Y91.295 E2.69844
G1 X150.917 Y91.769 E2.71675
G1 X151.342 Y92.566 E2.74679
G1 X151.614 Y93.191 E2.76946
G1 X151.815 Y93.697 E2.78757
G1 X152.111 Y94.551 E2.81763
G1 X152.285 Y95.214 E2.84043
G1 X152.408 Y95.758 E2.85898
G1 X152.568 Y96.646 E2.88899
G1 X152.638 Y97.36 E2.91285
G1 X152.688 Y98.297 E2.94406
G1 X152.7 Y99.011 E2.96781
G1 X152.7 Y120.793 E3.69228
G1 X152.681 Y121.858 E3.72771
G1 X152.64 Y122.595 E3.75226
G1 X152.604 Y122.985 E3.76529
G1 X152.481 Y123.879 E3.7953
G1 X152.363 Y124.435 E3.81421
G1 X152.225 Y125.008 E3.83381
G1 X151.975 Y125.876 E3.86385
G1 X151.686 Y126.633 E3.8908
G1 X151.484 Y127.105 E3.90788
G1 X151.093 Y127.919 E3.93792
G1 X150.805 Y128.419 E3.95711
G1 X150.53 Y128.868 E3.97462
G1 X149.811 Y129.895 E4.01632
G1 X149.316 Y130.492 E4.04211
G1 X149.077 Y130.76 E4.05405
G1 X148.446 Y131.407 E4.08411
G1 X148.085 Y131.73 E4.10022
G1 X147.635 Y132.114 E4.1199
G1 X146.923 Y132.669 E4.14993
G1 X146.22 Y133.126 E4.17781
G1 X145.787 Y133.383 E4.19456
G1 X144.991 Y133.809 E4.22459
G1 X144.489 Y134.034 E4.24289
G1 X143.99 Y134.241 E4.26085
G1 X143.142 Y134.549 E4.29086
G1 X142.443 Y134.742 E4.31498
G1 X141.863 Y134.88 E4.33481
G1 X140.976 Y135.05 E4.36485
G1 X140.156 Y135.136 E4.39227
G1 X139.642 Y135.169 E4.4094
G1 X139.182 Y135.188 E4.42472
G1 X138.461 Y135.2 E4.4487
G1 X81.502 Y135.198 E6.34316
G1 X80.642 Y135.181 E6.37177
G1 X79.923 Y135.141 E6.39572
G1 X79.537 Y135.106 E6.40861
G1 X78.642 Y134.985 E6.43865
G1 X78.106 Y134.873 E6.45687
G1 X77.528 Y134.736 E6.47662
G1 X76.659 Y134.489 E6.50667
G1 X75.85 Y134.181 E6.53546
G1 X75.392 Y133.984 E6.55204
G1 X74.579 Y133.591 E6.58208
G1 X74.072 Y133.298 E6.60156
G1 X73.551 Y132.977 E6.62191
G1 X72.803 Y132.47 E6.65196
G1 X72.136 Y131.927 E6.68057
G1 X71.723 Y131.561 E6.69892
G1 X71.074 Y130.932 E6.72898
G1 X70.634 Y130.434 E6.75109
G1 X70.291 Y130.02 E6.76897
G1 X69.746 Y129.3 E6.799
G1 X69.378 Y128.726 E6.82168
G1 X69.095 Y128.25 E6.8401
G1 X68.668 Y127.454 E6.87014
G1 X68.38 Y126.796 E6.89403
G1 X68.2 Y126.342 E6.91028
G1 X67.905 Y125.489 E6.9403
G1 X67.765 Y124.97 E6.95817
G1 X67.655 Y124.513 E6.97381
G1 X67.483 Y123.626 E7.00386
G1 X67.421 Y123.125 E7.02065
G1 X67.359 Y122.495 E7.04171
G1 X67.312 Y121.675 E7.06902
G1 X67.3 Y120.925 E7.09397
G1 X67.3 Y99.202 E7.81648
G1 X67.318 Y98.158 E7.85121
G1 X67.36 Y97.403 E7.87636
G1 X67.387 Y97.113 E7.88605
G1 X67.572 Y95.909 E7.92656
G1 X67.718 Y95.232 E7.9496
G1 X67.948 Y94.358 E7.97966
G1 X68.323 Y93.343 E8.01565
G1 X68.527 Y92.87 E8.03278
G1 X68.921 Y92.057 E8.06283
G1 X69.197 Y91.578 E8.08122
G1 X69.479 Y91.118 E8.09916
G1 X69.985 Y90.37 E8.1292
G1 X70.406 Y89.84 E8.15171
G1 X70.782 Y89.398 E8.17101
G1 X71.397 Y88.737 E8.20104
G1 X72.025 Y88.168 E8.22923
G1 X72.461 Y87.805 E8.24809
G0 F6000 X72.219 Y87.486
G1 F1200 X72.964 Y86.922 E8.27917
G1 X73.583 Y86.525 E8.30363
G1 X74.03 Y86.26 E8.32092
G1 X74.827 Y85.834 E8.35097
G1 X75.374 Y85.59 E8.37089
G1 X75.89 Y85.378 E8.38945
G1 X76.768 Y85.06 E8.42051
G1 X77.428 Y84.878 E8.44328
G1 X77.896 Y84.765 E8.45929
G1 X78.782 Y84.592 E8.48932
G1 X79.332 Y84.524 E8.50775
G1 X79.999 Y84.459 E8.53004
G1 X80.845 Y84.41 E8.55822
G1 X81.399 Y84.401 E8.57665
G1 X138.5 Y84.402 E10.47584
G1 X139.367 Y84.419 E10.50468
G1 X140.126 Y84.461 E10.52996
G1 X140.534 Y84.499 E10.54359
G1 X141.458 Y84.626 E10.57461
G1 X142.028 Y84.747 E10.59399
G1 X142.622 Y84.891 E10.61432
G1 X143.522 Y85.151 E10.64548
G1 X144.295 Y85.447 E10.67301
G1 X144.814 Y85.67 E10.6918
G1 X145.654 Y86.076 E10.72283
G1 X146.287 Y86.445 E10.7472
G1 X146.772 Y86.752 E10.76629
G1 X147.537 Y87.286 E10.79732
G1 X148.078 Y87.728 E10.82056
G1 X148.461 Y88.064 E10.8375
G1 X149.113 Y88.689 E10.86754
G1 X149.511 Y89.128 E10.88725
G1 X149.913 Y89.597 E10.9078
G1 X150.47 Y90.307 E10.93781
G1 X150.981 Y91.092 E10.96896
G1 X151.27 Y91.581 E10.98786
G1 X151.709 Y92.406 E11.01894
G1 X151.986 Y93.043 E11.04204
G1 X152.193 Y93.566 E11.06075
G1 X152.498 Y94.449 E11.09182
G1 X152.675 Y95.126 E11.1151
G1 X152.802 Y95.687 E11.13423
G1 X152.962 Y96.575 E11.16424
G1 X153.037 Y97.339 E11.18977
G1 X153.088 Y98.29 E11.22145
G1 X153.1 Y99.004 E11.2452
G1 X153.1 Y120.8 E11.97014
G1 X153.08 Y121.88 E12.00606
G1 X153.038 Y122.632 E12.03111
G1 X153 Y123.04 E12.04474
G1 X152.877 Y123.934 E12.07476
G1 X152.752 Y124.529 E12.09498
G1 X152.609 Y125.119 E12.11517
G1 X152.349 Y126.019 E12.14633
G1 X152.054 Y126.79 E12.17379
G1 X151.845 Y127.278 E12.19144
G1 X151.44 Y128.119 E12.22249
G1 X151.146 Y128.628 E12.24204
G1 X150.858 Y129.097 E12.26034
G1 X150.139 Y130.124 E12.30204
G1 X149.615 Y130.758 E12.3294
G1 X149.363 Y131.039 E12.34195
G1 X148.713 Y131.705 E12.3729
G1 X148.345 Y132.034 E12.38932
G1 X147.881 Y132.429 E12.40959
G1 X147.141 Y133.004 E12.44076
G1 X146.424 Y133.47 E12.4692
G1 X145.976 Y133.736 E12.48653
G1 X145.18 Y134.162 E12.51656
G1 X144.642 Y134.403 E12.53617
G1 X144.127 Y134.617 E12.55471
G1 X143.248 Y134.935 E12.5858
G1 X142.536 Y135.131 E12.61037
G1 X141.938 Y135.273 E12.63081
G1 X141.018 Y135.448 E12.66196
G1 X140.182 Y135.535 E12.68991
G1 X139.659 Y135.569 E12.70734
G1 X139.189 Y135.588 E12.72299
G1 X138.461 Y135.6 E12.74721
G1 X81.494 Y135.598 E14.64194
G1 X80.62 Y135.58 E14.67101
G1 X79.887 Y135.539 E14.69543
G1 X79.483 Y135.502 E14.70892
G1 X78.56 Y135.377 E14.7399
G1 X78.014 Y135.262 E14.75846
G1 X77.419 Y135.121 E14.7788
G1 X76.517 Y134.863 E14.81
G1 X75.692 Y134.548 E14.83937
G1 X75.218 Y134.344 E14.85654
G1 X74.405 Y133.951 E14.88657
G1 X73.862 Y133.639 E14.9074
G1 X73.341 Y133.318 E14.92775
G1 X72.55 Y132.78 E14.95957
G1 X71.871 Y132.226 E14.98872
G1 X71.445 Y131.848 E15.00766
G1 X70.774 Y131.197 E15.03876
G1 X70.326 Y130.689 E15.06128
G1 X69.972 Y130.261 E15.07976
G1 X69.409 Y129.516 E15.11082
G1 X69.034 Y128.93 E15.13396
G1 X68.743 Y128.439 E15.15294
G1 X68.302 Y127.614 E15.18405
G1 X68.008 Y126.943 E15.20842
G1 X67.822 Y126.473 E15.22523
G1 X67.527 Y125.62 E15.25525
G1 X67.376 Y125.064 E15.27441
G1 X67.262 Y124.589 E15.29066
G1 X67.09 Y123.702 E15.32071
G1 X67.023 Y123.164 E15.33874
G1 X66.96 Y122.518 E15.36033
G1 X66.912 Y121.681 E15.38822
G1 X66.9 Y120.931 E15.41316
G1 X66.9 Y99.195 E16.13611
G1 X66.919 Y98.136 E16.17133
G1 X66.962 Y97.366 E16.19699
G1 X66.992 Y97.052 E16.20748
G1 X67.181 Y95.825 E16.24877
G1 X67.331 Y95.13 E16.27242
G1 X67.561 Y94.256 E16.30247
G1 X67.956 Y93.185 E16.34044
G1 X68.167 Y92.696 E16.35816
G1 X68.574 Y91.857 E16.38917
G1 X68.856 Y91.369 E16.40792
G1 X69.148 Y90.894 E16.42646
G1 X69.672 Y90.121 E16.45752
G1 X70.101 Y89.581 E16.48046
G1 X70.489 Y89.126 E16.50035
G1 X71.128 Y88.441 E16.53151
G1 X71.769 Y87.861 E16.56026
G1 X72.219 Y87.486 E16.57974
G0 F6000 X71.978 Y87.167
G1 F1200 X72.748 Y86.585 E16.61184
G1 X73.379 Y86.181 E16.63676
G1 X73.841 Y85.907 E16.65463
G1 X74.638 Y85.481 E16.68469
G1 X75.222 Y85.22 E16.70596
G1 X75.754 Y85.002 E16.72509
G1 X76.662 Y84.674 E16.7572
G1 X77.334 Y84.489 E16.78038
G1 X77.819 Y84.372 E16.79697
G1 X78.705 Y84.199 E16.827
G1 X79.293 Y84.126 E16.8467
G1 X79.976 Y84.06 E16.86953
G1 X80.839 Y84.01 E16.89828
G1 X81.399 Y84.001 E16.91691
G1 X138.508 Y84.002 E18.81636
G1 X139.389 Y84.02 E18.84567
G1 X140.163 Y84.063 E18.87145
G1 X140.588 Y84.103 E18.88565
G1 X141.541 Y84.235 E18.91765
G1 X142.122 Y84.358 E18.9374
G1 X142.733 Y84.507 E18.95832
G1 X143.665 Y84.777 E18.99059
G1 X144.453 Y85.079 E19.01866
G1 X144.972 Y85.302 E19.03745
G1 X145.855 Y85.73 E19.07008
G1 X146.501 Y86.107 E19.09496
G1 X147.001 Y86.424 E19.11465
G1 X147.79 Y86.976 E19.14668
G1 X148.342 Y87.427 E19.17039
G1 X148.738 Y87.775 E19.18792
G1 X149.39 Y88.4 E19.21796
G1 X149.815 Y88.868 E19.23899
G1 X150.228 Y89.35 E19.2601
G1 X150.785 Y90.06 E19.29011
G1 X151.325 Y90.888 E19.32299
G1 X151.623 Y91.393 E19.34249
G1 X152.076 Y92.246 E19.37462
G1 X152.358 Y92.896 E19.39818
G1 X152.571 Y93.435 E19.41746
G1 X152.885 Y94.348 E19.44957
G1 X153.065 Y95.038 E19.47329
G1 X153.196 Y95.616 E19.493
G1 X153.356 Y96.504 E19.52301
G1 X153.436 Y97.318 E19.55022
G1 X153.488 Y98.283 E19.58236
G1 X153.5 Y98.997 E19.60611
G1 X153.5 Y120.807 E20.33151
G1 X153.479 Y121.902 E20.36794
G1 X153.436 Y122.669 E20.39349
G1 X153.396 Y123.095 E20.40772
G1 X153.273 Y123.989 E20.43774
G1 X153.141 Y124.623 E20.45928
G1 X152.993 Y125.23 E20.48006
G1 X152.723 Y126.162 E20.51233
G1 X152.422 Y126.947 E20.54029
G1 X152.205 Y127.452 E20.55857
G1 X151.8 Y128.293 E20.58962
G1 X151.487 Y128.837 E20.61049
G1 X151.186 Y129.326 E20.62959
G1 X150.467 Y130.353 E20.67129
G1 X149.913 Y131.025 E20.70026
G1 X149.649 Y131.318 E20.71337
G1 X148.98 Y132.003 E20.74522
G1 X148.604 Y132.339 E20.76199
G1 X148.126 Y132.745 E20.78285
G1 X147.386 Y133.32 E20.81402
G1 X146.628 Y133.814 E20.84411
G1 X146.165 Y134.089 E20.86202
G1 X145.369 Y134.515 E20.89205
G1 X144.795 Y134.772 E20.91297
G1 X144.263 Y134.993 E20.93213
G1 X143.354 Y135.321 E20.96427
G1 X142.628 Y135.52 E20.98931
G1 X142.013 Y135.666 E21.01033
G1 X141.059 Y135.846 E21.04262
G1 X140.208 Y135.934 E21.07108
G1 X139.675 Y135.969 E21.08884
G1 X139.205 Y135.988 E21.10449
G1 X138.461 Y136 E21.12924
G1 X81.486 Y135.998 E23.02423
G1 X80.598 Y135.979 E23.05378
G1 X79.851 Y135.937 E23.07866
G1 X79.429 Y135.898 E23.09276
G1 X78.506 Y135.773 E23.12374
G1 X77.922 Y135.651 E23.14358
G1 X77.309 Y135.506 E23.16453
G1 X76.374 Y135.237 E23.19689
G1 X75.549 Y134.922 E23.22626
G1 X75.044 Y134.704 E23.24456
G1 X74.206 Y134.298 E23.27553
G1 X73.652 Y133.98 E23.29677
G1 X73.116 Y133.649 E23.31772
G1 X72.325 Y133.111 E23.34954
G1 X71.606 Y132.525 E23.38039
G1 X71.166 Y132.135 E23.39995
G1 X70.474 Y131.462 E23.43205
G1 X70.018 Y130.944 E23.45501
G1 X69.653 Y130.502 E23.47407
G1 X69.072 Y129.732 E23.50616
G1 X68.69 Y129.134 E23.52976
G1 X68.39 Y128.628 E23.54932
G1 X67.949 Y127.803 E23.58044
G1 X67.636 Y127.09 E23.60634
G1 X67.444 Y126.604 E23.62372
G1 X67.141 Y125.725 E23.65464
G1 X66.987 Y125.157 E23.67421
G1 X66.869 Y124.665 E23.69104
G1 X66.697 Y123.778 E23.72109
G1 X66.625 Y123.203 E23.74037
G1 X66.561 Y122.541 E23.76249
G1 X66.512 Y121.687 E23.79094
G1 X66.5 Y120.937 E23.81589
G1 X66.5 Y99.188 E24.53926
G1 X66.52 Y98.114 E24.57499
G1 X66.564 Y97.328 E24.60117
G1 X66.597 Y96.991 E24.61243
G1 X66.79 Y95.741 E24.6545
G1 X66.944 Y95.028 E24.67876
G1 X67.174 Y94.154 E24.70882
G1 X67.589 Y93.027 E24.74877
G1 X67.807 Y92.521 E24.76709
G1 X68.214 Y91.682 E24.79811
G1 X68.515 Y91.16 E24.81815
G1 X68.817 Y90.67 E24.83729
G1 X69.359 Y89.872 E24.86938
G1 X69.797 Y89.321 E24.89279
G1 X70.197 Y88.853 E24.91327
G1 X70.86 Y88.144 E24.94555
G1 X71.501 Y87.564 E24.9743
G1 X71.978 Y87.167 E24.99494
G1 F1500 E18.49494
;MESH:Zero4U Hub Mount.stl
G0 F6000 X78.72 Y95.026
G0 X81.741 Y100.471
;TYPE:WALL-INNER
G1 F1500 E24.99494
G1 F1200 X81.275 Y100.582 E25.01088
G1 X80.745 Y100.59 E25.02851
G1 X80.257 Y100.469 E25.04523
G1 X79.804 Y100.231 E25.06225
G1 X79.425 Y99.895 E25.0791
G1 X79.137 Y99.479 E25.09592
G1 X78.958 Y99.005 E25.11278
G1 X78.896 Y98.498 E25.12976
G1 X78.96 Y98.003 E25.14637
G1 X79.141 Y97.515 E25.16368
G1 X79.42 Y97.116 E25.17987
G1 X79.802 Y96.771 E25.19699
G1 X80.264 Y96.529 E25.21434
G1 X80.732 Y96.413 E25.23037
G1 X81.258 Y96.411 E25.24787
G1 X81.743 Y96.531 E25.26449
G1 X82.193 Y96.766 E25.28137
G1 X82.575 Y97.105 E25.29836
G1 X82.862 Y97.52 E25.31514
G1 X83.043 Y97.997 E25.33211
G1 X83.102 Y98.522 E25.34968
G1 X83.038 Y99.003 E25.36582
G1 X82.864 Y99.478 E25.38264
G1 X82.575 Y99.895 E25.39952
G1 X82.197 Y100.23 E25.41632
G1 X81.741 Y100.471 E25.43347
G1 F1500 E18.93347
G0 F6000 X81.27 Y100.769
G0 X82.22 Y107.73
G0 X82.768 Y112.087
G1 F1500 E25.43347
G1 F1200 X82.237 Y112.088 E25.45113
G1 X81.757 Y111.969 E25.46758
G1 X81.304 Y111.731 E25.4846
G1 X80.925 Y111.395 E25.50145
G1 X80.638 Y110.98 E25.51823
G1 X80.458 Y110.507 E25.53506
G1 X80.396 Y110 E25.55205
G1 X80.458 Y109.494 E25.56901
G1 X80.638 Y109.02 E25.58587
G1 X80.925 Y108.605 E25.60265
G1 X81.304 Y108.269 E25.6195
G1 X81.757 Y108.031 E25.63652
G1 X82.241 Y107.911 E25.6531
G1 X82.768 Y107.913 E25.67063
G1 X83.243 Y108.031 E25.68691
G1 X83.693 Y108.266 E25.7038
G1 X84.075 Y108.605 E25.72078
G1 X84.363 Y109.02 E25.73758
G1 X84.543 Y109.498 E25.75457
G1 X84.6 Y110 E25.77138
G1 X84.542 Y110.504 E25.78825
G1 X84.363 Y110.98 E25.80516
G1 X84.075 Y111.395 E25.82197
G1 X83.693 Y111.734 E25.83895
G1 X83.243 Y111.969 E25.85584
G1 X82.768 Y112.087 E25.87212
G1 F1500 E19.37212
G0 F6000 X82.792 Y112.184
G0 X83.308 Y112.139
G0 X86.722 Y112.139
G0 X87.187 Y120.513
G1 F1500 E25.87212
G1 F1200 X87 Y120.333 E25.88075
G1 X86.902 Y120.051 E25.89068
G1 X86.905 Y99.85 E26.56257
G1 X87.07 Y99.58 E26.57309
G1 X87.373 Y99.4 E26.58481
G1 X132.5 Y99.4 E28.08574
G1 X132.813 Y99.487 E28.09655
G1 X133 Y99.667 E28.10518
G1 X133.07 Y99.809 E28.11045
G1 X133.101 Y100 E28.11688
G1 X133.101 Y120 E28.78208
G1 X133.07 Y120.191 E28.78852
G1 X133 Y120.333 E28.79379
G1 X132.812 Y120.513 E28.80244
G1 X132.5 Y120.6 E28.81322
G1 X87.5 Y120.6 E30.30992
G1 X87.187 Y120.513 E30.32073
G1 F1500 E23.82073
G0 F6000 X86.849 Y120.434
G0 X83.283 Y121.471
G0 X81.742 Y123.469
G1 F1500 E30.32073
G1 F1200 X81.26 Y123.588 E30.33724
G1 X80.74 Y123.588 E30.35454
G1 X80.27 Y123.473 E30.37063
G1 X79.8 Y123.228 E30.38826
G1 X79.42 Y122.884 E30.40531
G1 X79.134 Y122.475 E30.42191
G1 X78.961 Y121.999 E30.43875
G1 X78.897 Y121.514 E30.45502
G1 X78.957 Y120.998 E30.4723
G1 X79.136 Y120.521 E30.48924
G1 X79.425 Y120.105 E30.50609
G1 X79.804 Y119.769 E30.52294
G1 X80.257 Y119.531 E30.53996
G1 X80.732 Y119.412 E30.55624
G1 X81.259 Y119.411 E30.57377
G1 X81.736 Y119.533 E30.59015
G1 X82.194 Y119.767 E30.60725
G1 X82.575 Y120.105 E30.62419
G1 X82.863 Y120.52 E30.641
G1 X83.043 Y121 E30.65805
G1 X83.104 Y121.501 E30.67483
G1 X83.042 Y122.006 E30.69176
G1 X82.862 Y122.48 E30.70862
G1 X82.575 Y122.895 E30.7254
G1 X82.193 Y123.234 E30.74239
G1 X81.742 Y123.469 E30.7593
G0 F6000 X81.018 Y123.768
G0 X80.983 Y124.214
G0 X81.033 Y124.4
G1 F1200 X139.005 Y124.398 E32.68746
G1 X139.453 Y124.363 E32.70241
G1 X139.888 Y124.259 E32.71728
G1 X140.313 Y124.083 E32.73258
G1 X140.709 Y123.841 E32.74802
G1 X141.045 Y123.553 E32.76274
G1 X141.342 Y123.206 E32.77793
G1 X141.585 Y122.808 E32.79344
G1 X141.756 Y122.396 E32.80827
G1 X141.863 Y121.954 E32.8234
G1 X141.9 Y121.489 E32.83891
